paw-link-31.svg

<?xml version="1.0" encoding="UTF-8"?>
<svg xmlns="http://www.w3.org/2000/svg" xmlns:xlink="http://www.w3.org/1999/xlink" width="31px" height="31px" viewBox="0 0 31 31" version="1.1">
<defs>
<clipPath id="clip1">
  <path d="M 22 8.265625 L 30.082031 8.265625 L 30.082031 17.566406 L 22 17.566406 Z M 22 8.265625 "/>
</clipPath>
<clipPath id="clip2">
  <path d="M 16 1.433594 L 24.800781 1.433594 L 24.800781 12 L 16 12 Z M 16 1.433594 "/>
</clipPath>
<clipPath id="clip3">
  <path d="M 7 1.433594 L 15.5 1.433594 L 15.5 12 L 7 12 Z M 7 1.433594 "/>
</clipPath>
<clipPath id="clip4">
  <path d="M 5.441406 11.667969 L 26.195312 11.667969 L 26.195312 28.429688 L 5.441406 28.429688 Z M 5.441406 11.667969 "/>
</clipPath>
<clipPath id="clip5">
  <path d="M 0.902344 8.265625 L 9 8.265625 L 9 17.566406 L 0.902344 17.566406 Z M 0.902344 8.265625 "/>
</clipPath>
</defs>
<g id="surface1">
<g clip-path="url(#clip1)" clip-rule="nonzero">
<path style=" stroke:none;fill-rule:nonzero;fill:rgb(100%,56.078431%,24.705882%);fill-opacity:1;" d="M 25.066406 17.535156 C 25.003906 17.527344 24.9375 17.523438 24.875 17.519531 C 24.171875 17.425781 23.546875 17.082031 23.078125 16.558594 C 22.691406 16.136719 22.4375 15.632812 22.292969 15.039062 C 22.171875 14.574219 22.148438 14.058594 22.226562 13.546875 C 22.34375 12.519531 22.746094 11.550781 23.4375 10.703125 C 23.648438 10.433594 23.898438 10.164062 24.179688 9.925781 C 24.808594 9.398438 25.449219 9.09375 26.144531 8.925781 C 26.605469 8.835938 27.027344 8.804688 27.476562 8.871094 C 28.179688 8.996094 28.769531 9.304688 29.242188 9.828125 C 29.628906 10.25 29.90625 10.820312 30.015625 11.441406 C 30.085938 11.773438 30.125 12.097656 30.097656 12.421875 L 30.089844 12.515625 C 30.078125 12.613281 30.074219 12.710938 30.0625 12.808594 L 30.058594 12.902344 C 29.960938 13.640625 29.710938 14.328125 29.332031 14.976562 C 29.035156 15.46875 28.671875 15.921875 28.25 16.3125 C 27.652344 16.839844 27.007812 17.207031 26.3125 17.375 C 25.878906 17.535156 25.457031 17.5625 25.066406 17.535156 "/>
</g>
<g clip-path="url(#clip2)" clip-rule="nonzero">
<path style=" stroke:none;fill-rule:nonzero;fill:rgb(100%,56.078431%,24.705882%);fill-opacity:1;" d="M 23.996094 7.679688 C 23.804688 8.457031 23.480469 9.128906 23.058594 9.710938 C 22.640625 10.292969 22.1875 10.707031 21.640625 11.03125 C 21.1875 11.320312 20.703125 11.484375 20.1875 11.515625 L 19.929688 11.515625 C 19.410156 11.515625 18.925781 11.386719 18.507812 11.097656 C 18.085938 10.871094 17.699219 10.515625 17.375 10.097656 C 16.925781 9.519531 16.632812 8.808594 16.503906 7.972656 C 16.472656 7.617188 16.441406 7.261719 16.441406 6.878906 C 16.441406 6.585938 16.472656 6.296875 16.503906 6.007812 C 16.570312 5.488281 16.699219 5.007812 16.890625 4.523438 C 17.214844 3.71875 17.667969 3.042969 18.25 2.527344 C 18.667969 2.140625 19.121094 1.847656 19.605469 1.691406 C 20.21875 1.464844 20.832031 1.433594 21.445312 1.59375 C 22.027344 1.722656 22.542969 2.042969 22.996094 2.527344 C 23.382812 2.945312 23.640625 3.398438 23.867188 3.945312 C 24.09375 4.589844 24.222656 5.261719 24.222656 6.039062 C 24.222656 6.167969 24.191406 6.296875 24.191406 6.492188 C 24.15625 6.878906 24.09375 7.292969 23.996094 7.679688 "/>
</g>
<g clip-path="url(#clip3)" clip-rule="nonzero">
<path style=" stroke:none;fill-rule:nonzero;fill:rgb(100%,56.078431%,24.705882%);fill-opacity:1;" d="M 14.824219 9.195312 C 14.601562 9.839844 14.277344 10.359375 13.824219 10.773438 C 13.242188 11.320312 12.566406 11.644531 11.789062 11.675781 L 11.597656 11.675781 C 11.210938 11.675781 10.855469 11.582031 10.464844 11.582031 C 9.917969 11.355469 9.433594 11.03125 8.949219 10.578125 C 8.464844 10.097656 8.078125 9.550781 7.785156 8.9375 C 7.367188 8.070312 7.140625 7.164062 7.109375 6.199219 C 7.109375 5.652344 7.140625 5.105469 7.269531 4.621094 C 7.429688 3.945312 7.65625 3.398438 8.011719 2.914062 C 8.59375 2.105469 9.367188 1.660156 10.273438 1.53125 C 10.304688 1.53125 10.304688 1.53125 10.335938 1.53125 L 11.078125 1.53125 C 11.5 1.59375 11.953125 1.722656 12.339844 1.945312 C 12.855469 2.234375 13.339844 2.65625 13.761719 3.171875 C 14.210938 3.71875 14.535156 4.363281 14.792969 5.074219 C 15.019531 5.714844 15.117188 6.394531 15.148438 7.066406 C 15.148438 7.359375 15.148438 7.648438 15.117188 7.941406 C 15.050781 8.390625 14.953125 8.808594 14.824219 9.195312 "/>
</g>
<g clip-path="url(#clip4)" clip-rule="nonzero">
<path style=" stroke:none;fill-rule:nonzero;fill:rgb(100%,56.078431%,24.705882%);fill-opacity:1;" d="M 6.691406 20.085938 C 7.113281 19.472656 7.628906 18.894531 8.242188 18.378906 C 8.664062 17.992188 9.082031 17.570312 9.4375 17.121094 C 9.824219 16.636719 10.179688 16.121094 10.46875 15.671875 L 10.695312 15.316406 C 10.921875 14.964844 11.148438 14.640625 11.375 14.285156 C 11.730469 13.773438 12.054688 13.351562 12.40625 13.03125 C 13.023438 12.449219 13.730469 12.066406 14.539062 11.871094 C 15.054688 11.742188 15.605469 11.710938 16.121094 11.710938 C 16.605469 11.710938 17.089844 11.804688 17.542969 12 C 18.089844 12.222656 18.574219 12.578125 19.09375 13.0625 C 19.382812 13.351562 19.707031 13.707031 20.027344 14.125 C 20.351562 14.542969 20.640625 14.964844 20.933594 15.382812 L 21.09375 15.640625 C 21.480469 16.152344 21.871094 16.734375 22.320312 17.25 C 22.710938 17.699219 23.0625 18.054688 23.417969 18.378906 C 23.871094 18.765625 24.324219 19.214844 24.679688 19.699219 C 25.195312 20.375 25.582031 21.113281 25.839844 21.855469 C 26.003906 22.375 26.101562 22.886719 26.132812 23.402344 C 26.164062 23.855469 26.132812 24.339844 26.035156 24.753906 C 25.777344 25.949219 25.164062 26.914062 24.164062 27.625 C 23.582031 28.042969 22.933594 28.300781 22.191406 28.363281 C 22.09375 28.394531 22.03125 28.394531 21.933594 28.394531 L 21.449219 28.394531 C 21.160156 28.394531 20.867188 28.363281 20.640625 28.332031 C 19.996094 28.203125 19.351562 28.042969 18.769531 27.878906 L 18.738281 27.878906 C 18.1875 27.753906 17.640625 27.59375 17.089844 27.496094 C 16.863281 27.464844 16.574219 27.398438 16.28125 27.398438 C 15.894531 27.398438 15.539062 27.398438 15.21875 27.433594 C 14.765625 27.496094 14.25 27.59375 13.699219 27.722656 C 13.441406 27.785156 13.152344 27.878906 12.890625 27.945312 C 12.539062 28.042969 12.148438 28.136719 11.761719 28.234375 C 11.375 28.332031 10.953125 28.429688 10.503906 28.429688 L 9.726562 28.429688 C 9.664062 28.429688 9.632812 28.394531 9.566406 28.300781 C 9.371094 28.300781 9.148438 28.265625 8.953125 28.203125 C 8.4375 28.074219 7.917969 27.847656 7.433594 27.496094 C 6.789062 27.042969 6.273438 26.464844 5.949219 25.789062 C 5.59375 25.046875 5.433594 24.273438 5.464844 23.402344 C 5.496094 22.917969 5.59375 22.375 5.789062 21.855469 C 5.980469 21.242188 6.273438 20.667969 6.691406 20.085938 "/>
</g>
<g clip-path="url(#clip5)" clip-rule="nonzero">
<path style=" stroke:none;fill-rule:nonzero;fill:rgb(100%,56.078431%,24.705882%);fill-opacity:1;" d="M 1.042969 11.441406 C 1.152344 10.820312 1.429688 10.25 1.816406 9.828125 C 2.292969 9.304688 2.882812 8.996094 3.585938 8.871094 C 4.03125 8.804688 4.457031 8.835938 4.917969 8.925781 C 5.609375 9.09375 6.253906 9.398438 6.878906 9.925781 C 7.160156 10.164062 7.40625 10.433594 7.625 10.703125 C 8.3125 11.550781 8.714844 12.519531 8.835938 13.546875 C 8.910156 14.058594 8.886719 14.574219 8.761719 15.039062 C 8.617188 15.632812 8.371094 16.136719 7.984375 16.558594 C 7.507812 17.082031 6.886719 17.425781 6.183594 17.519531 C 6.121094 17.523438 6.054688 17.527344 5.988281 17.535156 C 5.601562 17.5625 5.179688 17.535156 4.746094 17.375 C 4.050781 17.207031 3.40625 16.839844 2.808594 16.3125 C 2.390625 15.921875 2.027344 15.46875 1.726562 14.976562 C 1.347656 14.328125 1.097656 13.640625 1.003906 12.902344 L 0.992188 12.808594 C 0.988281 12.710938 0.976562 12.613281 0.972656 12.515625 L 0.960938 12.421875 C 0.9375 12.097656 0.972656 11.773438 1.042969 11.441406 "/>
</g>
</g>
</svg>

<svg version="1.2" xmlns="http://www.w3.org/2000/svg" viewBox="0 0 31 31" width="31" height="31">
	<title>paw-link-31</title>
	<defs>
		<clipPath clipPathUnits="userSpaceOnUse" id="cp1">
			<path d="m22 8.27h8.08v9.3h-8.08z"/>
		</clipPath>
		<clipPath clipPathUnits="userSpaceOnUse" id="cp2">
			<path d="m16 1.43h8.8v10.57h-8.8z"/>
		</clipPath>
		<clipPath clipPathUnits="userSpaceOnUse" id="cp3">
			<path d="m7 1.43h8.5v10.57h-8.5z"/>
		</clipPath>
		<clipPath clipPathUnits="userSpaceOnUse" id="cp4">
			<path d="m5.44 11.67h20.76v16.76h-20.76z"/>
		</clipPath>
		<clipPath clipPathUnits="userSpaceOnUse" id="cp5">
			<path d="m0.9 8.27h8.1v9.3h-8.1z"/>
		</clipPath>
	</defs>
	<style>
		.s0 { fill: #ff8f3f } 
	</style>
	<filter id="f0">
		<feFlood flood-color="#5a3b1e" flood-opacity="1" />
		<feBlend mode="normal" in2="SourceGraphic"/>
		<feComposite in2="SourceAlpha" operator="in" />
	</filter>
	<g id="surface1" filter="url(#f0)">
		<g id="Clip-Path" clip-path="url(#cp1)">
			<g>
				<path class="s0" d="m25.1 17.5q-0.1 0-0.2 0c-0.7-0.1-1.4-0.4-1.8-0.9q-0.6-0.7-0.8-1.6-0.2-0.7-0.1-1.5 0.2-1.5 1.2-2.8 0.4-0.4 0.8-0.8c0.6-0.5 1.2-0.8 1.9-1 0.5-0.1 0.9-0.1 1.4 0q1 0.2 1.7 0.9c0.4 0.4 0.7 1 0.8 1.6q0.1 0.5 0.1 1v0.1q0 0.2 0 0.3v0.1q-0.2 1.1-0.8 2.1-0.4 0.7-1.1 1.3-0.8 0.8-1.9 1.1c-0.4 0.1-0.8 0.2-1.2 0.1z"/>
			</g>
		</g>
		<g id="Clip-Path" clip-path="url(#cp2)">
			<g>
				<path class="s0" d="m24 7.7q-0.3 1.1-0.9 2c-0.5 0.6-0.9 1-1.5 1.3q-0.6 0.5-1.4 0.5h-0.3q-0.8 0-1.4-0.4c-0.4-0.2-0.8-0.6-1.1-1q-0.7-0.9-0.9-2.1-0.1-0.6-0.1-1.1 0-0.5 0.1-0.9 0.1-0.8 0.4-1.5 0.5-1.2 1.3-2 0.7-0.6 1.4-0.8 0.9-0.3 1.8-0.1 0.9 0.2 1.6 0.9c0.4 0.4 0.6 0.9 0.9 1.4 0.2 0.7 0.3 1.4 0.3 2.1 0 0.2 0 0.3 0 0.5q-0.1 0.6-0.2 1.2z"/>
			</g>
		</g>
		<g id="Clip-Path" clip-path="url(#cp3)">
			<g>
				<path class="s0" d="m14.8 9.2q-0.3 1-1 1.6c-0.6 0.5-1.2 0.8-2 0.9h-0.2c-0.4 0-0.7-0.1-1.1-0.1-0.6-0.2-1.1-0.6-1.6-1q-0.7-0.7-1.1-1.7-0.6-1.3-0.7-2.7c0-0.5 0-1.1 0.2-1.6 0.1-0.7 0.4-1.2 0.7-1.7 0.6-0.8 1.4-1.2 2.3-1.4q0 0 0 0h0.8c0.4 0.1 0.9 0.2 1.2 0.4q0.8 0.5 1.5 1.3c0.4 0.5 0.7 1.2 1 1.9 0.2 0.6 0.3 1.3 0.3 2q0.1 0.4 0 0.8-0.1 0.7-0.3 1.3z"/>
			</g>
		</g>
		<g id="Clip-Path" clip-path="url(#cp4)">
			<g>
				<path class="s0" d="m6.7 20.1q0.6-0.9 1.5-1.7 0.7-0.6 1.2-1.3c0.4-0.5 0.8-1 1.1-1.4l0.2-0.4q0.3-0.5 0.7-1 0.5-0.8 1-1.3 0.9-0.8 2.1-1.1c0.6-0.2 1.1-0.2 1.6-0.2q0.8 0 1.4 0.3c0.6 0.2 1.1 0.6 1.6 1.1q0.4 0.4 0.9 1 0.5 0.7 0.9 1.3l0.2 0.2c0.4 0.6 0.8 1.1 1.2 1.6 0.4 0.5 0.8 0.9 1.1 1.2 0.5 0.4 0.9 0.8 1.3 1.3q0.8 1 1.1 2.2 0.3 0.7 0.3 1.5c0.1 0.5 0 0.9-0.1 1.4q-0.3 1.8-1.8 2.8-0.9 0.7-2 0.8c-0.1 0-0.2 0-0.3 0h-0.5c-0.2 0-0.5 0-0.8-0.1-0.6-0.1-1.2-0.3-1.8-0.4h-0.1c-0.5-0.1-1.1-0.3-1.6-0.4-0.2 0-0.5-0.1-0.8-0.1q-0.6 0-1.1 0-0.7 0.1-1.5 0.3c-0.3 0.1-0.5 0.2-0.8 0.2q-0.5 0.2-1.1 0.3c-0.4 0.1-0.8 0.2-1.3 0.2h-0.8c0 0-0.1 0-0.1-0.1q-0.3 0-0.6-0.1-0.8-0.2-1.6-0.7c-0.6-0.5-1.1-1-1.5-1.7-0.3-0.8-0.5-1.5-0.4-2.4 0-0.5 0.1-1 0.3-1.5q0.3-1 0.9-1.8z"/>
			</g>
		</g>
		<g id="Clip-Path" clip-path="url(#cp5)">
			<g>
				<path class="s0" d="m1 11.4c0.2-0.6 0.4-1.2 0.8-1.6q0.7-0.7 1.8-0.9c0.4-0.1 0.9-0.1 1.3 0 0.7 0.2 1.4 0.5 2 1q0.4 0.4 0.7 0.8 1.1 1.3 1.2 2.8 0.1 0.8 0 1.5-0.2 0.9-0.8 1.6c-0.5 0.5-1.1 0.8-1.8 0.9q-0.1 0-0.2 0c-0.4 0.1-0.8 0-1.3-0.1q-1-0.3-1.9-1.1-0.6-0.6-1.1-1.3-0.5-1-0.7-2.1v-0.1q0-0.1 0-0.3v-0.1q-0.1-0.5 0-1z"/>
			</g>
		</g>
	</g>
</svg>
